X:1
T: Sally Sloane's set tune
T:Sally Sloane's barndance
T:Trip to Cottingham
N: from the melodeon playing of Sally Sloane
N: Sally playing on 'A Garland for Sally' LP
N: Sally played the 2nd part without a repeat.
Z:Ian Hayden 2017
K: D
M: 6/8
|:E|DAF DAF|EAF EFG|FAd dcd|f2 e e2E|
|DAF DAF|EAF EFG|FAd cBc|e2 d d2::
e|f3 d2 e|fee e2 f|g3 c2 d|edd d3|
|f3 d2 e|fee e2 f|g3 c2 d|edd d2(c/2B/2):|
|:A3 GFG|A3 GFG|AFA dcd|fed cBA|
G3 E2 F|G3 E2 F|GBA GFE| D3-D3:|
